X: 569
T:Sholem zol zajn
O:klezmer
M:2/4
L:1/8
Q:1/4=88
K:Dm
{DF}DF AG |{GB}"Gm" GF ED |{FA}"Dm" (F2 D2) |{DF}D2 D2 |\
"Dm" ~DF AG |"A7" ~GF ED |"Dm" ~F4 |F4 |
"Dm" ~DF AG |"Gm" ~GF ED |"Dm" ~F2 D2 |~D2 D2 |\
"Bb" ~FF EF |"A7" ~G2 FE |(D4 |D)E FG |]
"Dm" AG FG |AG FG |A2 D2 |[F2D2][F2D2]|\
"Gm" z[B2G2][cA]|[d2B2][cA][BG]|"Dm" [A4-F4-]|[AF]E "A7" FG  |:
"Dm" A2 D2 |"Dm/c#" D2 D2 |"Dm/c" A2 D2 |"Dm/bb" D2 D2 |\
"Bb" FF EF |"A7" G2 FE |1 "Dm" (F4 |F)E "A7" FG :|2
"Dm" (D4 |D4) |]
